src/pages/elements/images/this-is-comfortable-mobile.svg

<svg xmlns="http://www.w3.org/2000/svg" viewBox="0 0 288 144"><g fill="none" fill-rule="evenodd"><path fill="#FFF" d="M0 0h288v144H0z"/><path d="M37.2 66.024h-5.328V81h-2.016V66.024h-5.328v-1.776H37.2v1.776zM39.768 81V63.24h1.92v7.392h.096c.6-1.392 1.656-2.304 3.504-2.304 2.544 0 4.152 1.728 4.152 4.728V81h-1.92v-7.608c0-2.208-.96-3.336-2.808-3.336-1.536 0-3.024.768-3.024 2.352V81h-1.92zM54.36 65.712c-.816 0-1.176-.432-1.176-1.08v-.312c0-.648.36-1.08 1.176-1.08s1.176.432 1.176 1.08v.312c0 .648-.36 1.08-1.176 1.08zM53.4 81V68.616h1.92V81H53.4zm9.72.288c-2.28 0-3.792-.96-4.896-2.424l1.368-1.104c.96 1.2 2.112 1.896 3.672 1.896 1.632 0 2.592-.744 2.592-2.016 0-.96-.528-1.704-2.16-1.944l-.984-.144c-2.28-.336-3.984-1.272-3.984-3.576 0-2.448 1.896-3.648 4.416-3.648 1.992 0 3.312.744 4.32 1.992l-1.272 1.152c-.552-.768-1.608-1.512-3.192-1.512s-2.424.744-2.424 1.92c0 1.2.84 1.68 2.376 1.92l.96.144c2.736.408 3.792 1.608 3.792 3.48 0 2.4-1.752 3.864-4.584 3.864zm14.592-15.576c-.816 0-1.176-.432-1.176-1.08v-.312c0-.648.36-1.08 1.176-1.08s1.176.432 1.176 1.08v.312c0 .648-.36 1.08-1.176 1.08zM76.752 81V68.616h1.92V81h-1.92zm9.72.288c-2.28 0-3.792-.96-4.896-2.424l1.368-1.104c.96 1.2 2.112 1.896 3.672 1.896 1.632 0 2.592-.744 2.592-2.016 0-.96-.528-1.704-2.16-1.944l-.984-.144c-2.28-.336-3.984-1.272-3.984-3.576 0-2.448 1.896-3.648 4.416-3.648 1.992 0 3.312.744 4.32 1.992l-1.272 1.152c-.552-.768-1.608-1.512-3.192-1.512s-2.424.744-2.424 1.92c0 1.2.84 1.68 2.376 1.92l.96.144c2.736.408 3.792 1.608 3.792 3.48 0 2.4-1.752 3.864-4.584 3.864zm18.24 0c-3.48 0-5.52-2.52-5.52-6.48 0-3.96 2.04-6.48 5.52-6.48 2.448 0 3.912 1.2 4.632 2.904l-1.608.816c-.456-1.272-1.512-2.016-3.024-2.016-2.28 0-3.456 1.56-3.456 3.72v2.112c0 2.16 1.176 3.72 3.456 3.72 1.56 0 2.688-.744 3.36-2.16l1.392.936c-.792 1.776-2.4 2.928-4.752 2.928zm12 0c-3.312 0-5.592-2.544-5.592-6.48 0-3.936 2.28-6.48 5.592-6.48s5.592 2.544 5.592 6.48c0 3.936-2.28 6.48-5.592 6.48zm0-1.704c2.064 0 3.528-1.272 3.528-3.888V73.92c0-2.616-1.464-3.888-3.528-3.888s-3.528 1.272-3.528 3.888v1.776c0 2.616 1.464 3.888 3.528 3.888zM127.392 81h-1.92V68.616h1.92v2.016h.096c.552-1.272 1.416-2.304 3.336-2.304 1.632 0 3.12.744 3.792 2.52h.048c.456-1.344 1.656-2.52 3.768-2.52 2.52 0 4.032 1.728 4.032 4.728V81h-1.92v-7.608c0-2.184-.84-3.336-2.712-3.336-1.512 0-2.904.768-2.904 2.352V81h-1.92v-7.608c0-2.208-.84-3.336-2.664-3.336-1.512 0-2.952.768-2.952 2.352V81zm19.704 0V70.296h-2.016v-1.68h2.016V66.12c0-1.704.888-2.88 2.712-2.88h1.872v1.68h-2.664v3.696h2.664v1.68h-2.664V81h-1.92zm11.688.288c-3.312 0-5.592-2.544-5.592-6.48 0-3.936 2.28-6.48 5.592-6.48s5.592 2.544 5.592 6.48c0 3.936-2.28 6.48-5.592 6.48zm0-1.704c2.064 0 3.528-1.272 3.528-3.888V73.92c0-2.616-1.464-3.888-3.528-3.888s-3.528 1.272-3.528 3.888v1.776c0 2.616 1.464 3.888 3.528 3.888zM169.464 81h-1.92V68.616h1.92v2.28h.12c.432-1.176 1.56-2.28 3.576-2.28h.744v1.92h-1.128c-2.064 0-3.312.888-3.312 2.064V81zm12.12 0h-2.4c-1.32 0-2.04-.84-2.04-2.04v-8.664h-2.04v-1.68h1.152c.816 0 1.08-.288 1.08-1.128v-2.304h1.728v3.432h2.712v1.68h-2.712v9.024h2.52V81zm13.368 0h-1.08c-1.416 0-1.992-.864-2.136-2.016h-.12c-.528 1.512-1.848 2.304-3.576 2.304-2.616 0-4.152-1.44-4.152-3.744 0-2.328 1.68-3.624 5.28-3.624h2.448v-1.224c0-1.752-.96-2.712-2.928-2.712-1.488 0-2.472.72-3.144 1.848l-1.152-1.08c.672-1.32 2.16-2.424 4.392-2.424 2.976 0 4.752 1.56 4.752 4.176v6.816h1.416V81zm-6.6-1.344c1.896 0 3.264-.984 3.264-2.256v-2.04h-2.544c-2.184 0-3.168.672-3.168 1.872v.504c0 1.224.96 1.92 2.448 1.92zM197.688 81V63.24h1.92v7.392h.096c.648-1.56 1.92-2.304 3.624-2.304 3.096 0 5.04 2.52 5.04 6.48 0 3.96-1.944 6.48-5.04 6.48-1.704 0-2.88-.768-3.624-2.304h-.096V81h-1.92zm5.112-1.44c2.16 0 3.504-1.488 3.504-3.696v-2.112c0-2.208-1.344-3.696-3.504-3.696-1.752 0-3.192 1.008-3.192 2.376v4.608c0 1.608 1.44 2.52 3.192 2.52zM215.352 81h-1.704c-1.32 0-2.04-.84-2.04-1.992V63.24h1.92v16.08h1.824V81zm7.44.288c-3.36 0-5.568-2.544-5.568-6.48 0-3.936 2.208-6.48 5.568-6.48 3.312 0 5.352 2.544 5.352 6.048v.912h-8.904v.576c0 2.136 1.368 3.744 3.672 3.744 1.56 0 2.76-.768 3.408-2.136l1.368.984c-.792 1.68-2.568 2.832-4.896 2.832zm0-11.352c-2.088 0-3.552 1.584-3.552 3.744v.168h6.84v-.264c0-2.184-1.32-3.648-3.288-3.648zm9.264 11.352c-1.008 0-1.464-.576-1.464-1.392v-.312c0-.816.456-1.392 1.464-1.392s1.464.576 1.464 1.392v.312c0 .816-.456 1.392-1.464 1.392z" fill="#3D3D3D"/></g></svg>

<?xml version="1.0" encoding="UTF-8"?>
<svg width="288px" height="144px" viewBox="0 0 288 144" version="1.1" xmlns="http://www.w3.org/2000/svg" xmlns:xlink="http://www.w3.org/1999/xlink">
    <!-- Generator: Sketch 51.2 (57519) - http://www.bohemiancoding.com/sketch -->
    <title>This is comfortable_Mobile</title>
    <desc>Created with Sketch.</desc>
    <defs></defs>
    <g id="Page-1" stroke="none" stroke-width="1" fill="none" fill-rule="evenodd">
        <g id="Typography_Mobile_320px-Copy-2" transform="translate(-16.000000, -151.000000)">
            <g id="This-is-comfortable_Mobile" transform="translate(16.000000, 151.000000)">
                <rect id="Rectangle-16-Copy-156" fill="#FFFFFF" x="0" y="0" width="288" height="144"></rect>
                <path d="M37.2,66.024 L31.872,66.024 L31.872,81 L29.856,81 L29.856,66.024 L24.528,66.024 L24.528,64.248 L37.2,64.248 L37.2,66.024 Z M39.768,81 L39.768,63.24 L41.688,63.24 L41.688,70.632 L41.784,70.632 C42.384,69.24 43.44,68.328 45.288,68.328 C47.832,68.328 49.44,70.056 49.44,73.056 L49.44,81 L47.52,81 L47.52,73.392 C47.52,71.184 46.56,70.056 44.712,70.056 C43.176,70.056 41.688,70.824 41.688,72.408 L41.688,81 L39.768,81 Z M54.36,65.712 C53.544,65.712 53.184,65.28 53.184,64.632 L53.184,64.32 C53.184,63.672 53.544,63.24 54.36,63.24 C55.176,63.24 55.536,63.672 55.536,64.32 L55.536,64.632 C55.536,65.28 55.176,65.712 54.36,65.712 Z M53.4,81 L53.4,68.616 L55.32,68.616 L55.32,81 L53.4,81 Z M63.12,81.288 C60.84,81.288 59.328,80.328 58.224,78.864 L59.592,77.76 C60.552,78.96 61.704,79.656 63.264,79.656 C64.896,79.656 65.856,78.912 65.856,77.64 C65.856,76.68 65.328,75.936 63.696,75.696 L62.712,75.552 C60.432,75.216 58.728,74.28 58.728,71.976 C58.728,69.528 60.624,68.328 63.144,68.328 C65.136,68.328 66.456,69.072 67.464,70.32 L66.192,71.472 C65.64,70.704 64.584,69.96 63,69.96 C61.416,69.96 60.576,70.704 60.576,71.88 C60.576,73.08 61.416,73.56 62.952,73.8 L63.912,73.944 C66.648,74.352 67.704,75.552 67.704,77.424 C67.704,79.824 65.952,81.288 63.12,81.288 Z M77.712,65.712 C76.896,65.712 76.536,65.28 76.536,64.632 L76.536,64.32 C76.536,63.672 76.896,63.24 77.712,63.24 C78.528,63.24 78.888,63.672 78.888,64.32 L78.888,64.632 C78.888,65.28 78.528,65.712 77.712,65.712 Z M76.752,81 L76.752,68.616 L78.672,68.616 L78.672,81 L76.752,81 Z M86.472,81.288 C84.192,81.288 82.68,80.328 81.576,78.864 L82.944,77.76 C83.904,78.96 85.056,79.656 86.616,79.656 C88.248,79.656 89.208,78.912 89.208,77.64 C89.208,76.68 88.68,75.936 87.048,75.696 L86.064,75.552 C83.784,75.216 82.08,74.28 82.08,71.976 C82.08,69.528 83.976,68.328 86.496,68.328 C88.488,68.328 89.808,69.072 90.816,70.32 L89.544,71.472 C88.992,70.704 87.936,69.96 86.352,69.96 C84.768,69.96 83.928,70.704 83.928,71.88 C83.928,73.08 84.768,73.56 86.304,73.8 L87.264,73.944 C90,74.352 91.056,75.552 91.056,77.424 C91.056,79.824 89.304,81.288 86.472,81.288 Z M104.712,81.288 C101.232,81.288 99.192,78.768 99.192,74.808 C99.192,70.848 101.232,68.328 104.712,68.328 C107.16,68.328 108.624,69.528 109.344,71.232 L107.736,72.048 C107.28,70.776 106.224,70.032 104.712,70.032 C102.432,70.032 101.256,71.592 101.256,73.752 L101.256,75.864 C101.256,78.024 102.432,79.584 104.712,79.584 C106.272,79.584 107.4,78.84 108.072,77.424 L109.464,78.36 C108.672,80.136 107.064,81.288 104.712,81.288 Z M116.712,81.288 C113.4,81.288 111.12,78.744 111.12,74.808 C111.12,70.872 113.4,68.328 116.712,68.328 C120.024,68.328 122.304,70.872 122.304,74.808 C122.304,78.744 120.024,81.288 116.712,81.288 Z M116.712,79.584 C118.776,79.584 120.24,78.312 120.24,75.696 L120.24,73.92 C120.24,71.304 118.776,70.032 116.712,70.032 C114.648,70.032 113.184,71.304 113.184,73.92 L113.184,75.696 C113.184,78.312 114.648,79.584 116.712,79.584 Z M127.392,81 L125.472,81 L125.472,68.616 L127.392,68.616 L127.392,70.632 L127.488,70.632 C128.04,69.36 128.904,68.328 130.824,68.328 C132.456,68.328 133.944,69.072 134.616,70.848 L134.664,70.848 C135.12,69.504 136.32,68.328 138.432,68.328 C140.952,68.328 142.464,70.056 142.464,73.056 L142.464,81 L140.544,81 L140.544,73.392 C140.544,71.208 139.704,70.056 137.832,70.056 C136.32,70.056 134.928,70.824 134.928,72.408 L134.928,81 L133.008,81 L133.008,73.392 C133.008,71.184 132.168,70.056 130.344,70.056 C128.832,70.056 127.392,70.824 127.392,72.408 L127.392,81 Z M147.096,81 L147.096,70.296 L145.08,70.296 L145.08,68.616 L147.096,68.616 L147.096,66.12 C147.096,64.416 147.984,63.24 149.808,63.24 L151.68,63.24 L151.68,64.92 L149.016,64.92 L149.016,68.616 L151.68,68.616 L151.68,70.296 L149.016,70.296 L149.016,81 L147.096,81 Z M158.784,81.288 C155.472,81.288 153.192,78.744 153.192,74.808 C153.192,70.872 155.472,68.328 158.784,68.328 C162.096,68.328 164.376,70.872 164.376,74.808 C164.376,78.744 162.096,81.288 158.784,81.288 Z M158.784,79.584 C160.848,79.584 162.312,78.312 162.312,75.696 L162.312,73.92 C162.312,71.304 160.848,70.032 158.784,70.032 C156.72,70.032 155.256,71.304 155.256,73.92 L155.256,75.696 C155.256,78.312 156.72,79.584 158.784,79.584 Z M169.464,81 L167.544,81 L167.544,68.616 L169.464,68.616 L169.464,70.896 L169.584,70.896 C170.016,69.72 171.144,68.616 173.16,68.616 L173.904,68.616 L173.904,70.536 L172.776,70.536 C170.712,70.536 169.464,71.424 169.464,72.6 L169.464,81 Z M181.584,81 L179.184,81 C177.864,81 177.144,80.16 177.144,78.96 L177.144,70.296 L175.104,70.296 L175.104,68.616 L176.256,68.616 C177.072,68.616 177.336,68.328 177.336,67.488 L177.336,65.184 L179.064,65.184 L179.064,68.616 L181.776,68.616 L181.776,70.296 L179.064,70.296 L179.064,79.32 L181.584,79.32 L181.584,81 Z M194.952,81 L193.872,81 C192.456,81 191.88,80.136 191.736,78.984 L191.616,78.984 C191.088,80.496 189.768,81.288 188.04,81.288 C185.424,81.288 183.888,79.848 183.888,77.544 C183.888,75.216 185.568,73.92 189.168,73.92 L191.616,73.92 L191.616,72.696 C191.616,70.944 190.656,69.984 188.688,69.984 C187.2,69.984 186.216,70.704 185.544,71.832 L184.392,70.752 C185.064,69.432 186.552,68.328 188.784,68.328 C191.76,68.328 193.536,69.888 193.536,72.504 L193.536,79.32 L194.952,79.32 L194.952,81 Z M188.352,79.656 C190.248,79.656 191.616,78.672 191.616,77.4 L191.616,75.36 L189.072,75.36 C186.888,75.36 185.904,76.032 185.904,77.232 L185.904,77.736 C185.904,78.96 186.864,79.656 188.352,79.656 Z M197.688,81 L197.688,63.24 L199.608,63.24 L199.608,70.632 L199.704,70.632 C200.352,69.072 201.624,68.328 203.328,68.328 C206.424,68.328 208.368,70.848 208.368,74.808 C208.368,78.768 206.424,81.288 203.328,81.288 C201.624,81.288 200.448,80.52 199.704,78.984 L199.608,78.984 L199.608,81 L197.688,81 Z M202.8,79.56 C204.96,79.56 206.304,78.072 206.304,75.864 L206.304,73.752 C206.304,71.544 204.96,70.056 202.8,70.056 C201.048,70.056 199.608,71.064 199.608,72.432 L199.608,77.04 C199.608,78.648 201.048,79.56 202.8,79.56 Z M215.352,81 L213.648,81 C212.328,81 211.608,80.16 211.608,79.008 L211.608,63.24 L213.528,63.24 L213.528,79.32 L215.352,79.32 L215.352,81 Z M222.792,81.288 C219.432,81.288 217.224,78.744 217.224,74.808 C217.224,70.872 219.432,68.328 222.792,68.328 C226.104,68.328 228.144,70.872 228.144,74.376 L228.144,75.288 L219.24,75.288 L219.24,75.864 C219.24,78 220.608,79.608 222.912,79.608 C224.472,79.608 225.672,78.84 226.32,77.472 L227.688,78.456 C226.896,80.136 225.12,81.288 222.792,81.288 Z M222.792,69.936 C220.704,69.936 219.24,71.52 219.24,73.68 L219.24,73.848 L226.08,73.848 L226.08,73.584 C226.08,71.4 224.76,69.936 222.792,69.936 Z M232.056,81.288 C231.048,81.288 230.592,80.712 230.592,79.896 L230.592,79.584 C230.592,78.768 231.048,78.192 232.056,78.192 C233.064,78.192 233.52,78.768 233.52,79.584 L233.52,79.896 C233.52,80.712 233.064,81.288 232.056,81.288 Z" id="This-is-comfortable." fill="#3D3D3D"></path>
            </g>
        </g>
    </g>
</svg>
